packages/elements/bolt-icon/src/svgs/truck.svg

<svg enable-background="new 0 0 32 32" viewBox="0 0 32 32" xmlns="http://www.w3.org/2000/svg"><path clip-rule="evenodd" d="m30 20-.8-4h-7.2v2.1c.3-.1.7-.1 1-.1 1.6 0 3.1.7 4 2zm-8-6h6.8l-.8-4h-6zm4 9c0-1.7-1.4-3-3-3-.8 0-1.5.3-2.1.9-1.3 1-1.6 2.9-.6 4.2s2.9 1.6 4.2.6l.6-.6c.6-.5.9-1.3.9-2.1zm-16 0c0-.8-.3-1.6-.9-2.1-1.1-1.2-2.9-1.2-4.1-.1 0 0-.1.1-.1.1-1.2 1.1-1.2 2.9-.1 4.1 0 0 .1.1.1.1 1.1 1.2 2.9 1.2 4.1.1 0 0 .1-.1.1-.1.6-.5.9-1.3.9-2.1zm10-4v-12c0-.3-.1-.5-.3-.7s-.4-.3-.7-.3h-16c-.3 0-.5.1-.7.3s-.3.4-.3.7v12c0 .7.3 1 1 1 .9-1.3 2.4-2 4-2s3.1.7 4 2h8c.3-.4.6-.7 1-1zm12 2c0 .3-.1.5-.3.7s-.4.3-.7.3h-3.1c.1.3.1.7.1 1 0 1.3-.5 2.6-1.5 3.5-.9 1-2.2 1.5-3.5 1.5s-2.6-.5-3.5-1.5c-1-.9-1.5-2.2-1.5-3.5v-.2h-6v.2c0 1.3-.5 2.6-1.5 3.5-.9 1-2.2 1.5-3.5 1.5s-2.6-.5-3.5-1.5c-1-.9-1.5-2.2-1.5-3.5v-.2c-.5 0-1-.2-1.4-.6s-.6-.9-.6-1.5v-14.6c0-.6.2-1.1.6-1.5s.9-.6 1.4-.6h18c.5 0 1 .2 1.4.6s.6.9.6 1.5v1.9h7c.7 0 1 .3 1 1z" fill="#151619" fill-rule="evenodd"/></svg>

<?xml version="1.0" encoding="utf-8"?>
<!-- Generator: Adobe Illustrator 25.2.0, SVG Export Plug-In . SVG Version: 6.00 Build 0)  -->
<svg version="1.1" id="Layer_1" xmlns="http://www.w3.org/2000/svg" xmlns:xlink="http://www.w3.org/1999/xlink" x="0px" y="0px"
	 viewBox="0 0 32 32" style="enable-background:new 0 0 32 32;" xml:space="preserve">
<style type="text/css">
	.st0{fill-rule:evenodd;clip-rule:evenodd;fill:#151619;}
</style>
<path class="st0" d="M30,20l-0.8-4H22v2.1c0.3-0.1,0.7-0.1,1-0.1c1.6,0,3.1,0.7,4,2H30z M22,14h6.8L28,10h-6V14z M26,23
	c0-1.7-1.4-3-3-3c-0.8,0-1.5,0.3-2.1,0.9c-1.3,1-1.6,2.9-0.6,4.2c1,1.3,2.9,1.6,4.2,0.6c0.2-0.2,0.4-0.4,0.6-0.6
	C25.7,24.6,26,23.8,26,23z M10,23c0-0.8-0.3-1.6-0.9-2.1C8,19.7,6.2,19.7,5,20.8c0,0-0.1,0.1-0.1,0.1C3.7,22,3.7,23.8,4.8,25
	c0,0,0.1,0.1,0.1,0.1C6,26.3,7.8,26.3,9,25.2c0,0,0.1-0.1,0.1-0.1C9.7,24.6,10,23.8,10,23z M20,19V7c0-0.3-0.1-0.5-0.3-0.7
	C19.5,6.1,19.3,6,19,6H3C2.7,6,2.5,6.1,2.3,6.3C2.1,6.5,2,6.7,2,7v12c0,0.7,0.3,1,1,1c0.9-1.3,2.4-2,4-2c1.6,0,3.1,0.7,4,2h8
	C19.3,19.6,19.6,19.3,20,19z M32,21c0,0.3-0.1,0.5-0.3,0.7C31.5,21.9,31.3,22,31,22h-3.1c0.1,0.3,0.1,0.7,0.1,1
	c0,1.3-0.5,2.6-1.5,3.5c-0.9,1-2.2,1.5-3.5,1.5c-1.3,0-2.6-0.5-3.5-1.5c-1-0.9-1.5-2.2-1.5-3.5v-0.2h-6V23c0,1.3-0.5,2.6-1.5,3.5
	C9.6,27.5,8.3,28,7,28c-1.3,0-2.6-0.5-3.5-1.5C2.5,25.6,2,24.3,2,23v-0.2c-0.5,0-1-0.2-1.4-0.6C0.2,21.8,0,21.3,0,20.7V6.1
	C0,5.5,0.2,5,0.6,4.6C1,4.2,1.5,4,2,4h18c0.5,0,1,0.2,1.4,0.6C21.8,5,22,5.5,22,6.1V8h7c0.7,0,1,0.3,1,1L32,21z"/>
</svg>
